svg/fluentui-system-icons/ic_fluent_shopping_bag_dismiss_20_filled.svg

<svg width="20" height="20" viewBox="0 0 20 20" fill="none" xmlns="http://www.w3.org/2000/svg">
<path d="M6 6V4.5C6 4.156 6.065 3.833 6.195 3.531C6.325 3.224 6.505 2.958 6.734 2.734C6.958 2.505 7.224 2.325 7.531 2.195C7.833 2.065 8.156 2 8.5 2C8.781 2 9.049 2.044 9.305 2.133C9.561 2.222 9.795 2.347 10.008 2.508C10.216 2.347 10.448 2.222 10.703 2.133C10.953 2.044 11.219 2 11.5 2C11.844 2 12.169 2.065 12.477 2.195C12.779 2.325 13.045 2.505 13.274 2.734C13.498 2.958 13.675 3.224 13.805 3.531C13.935 3.833 14 4.156 14 4.5V6H15C15.5523 6 16 6.44772 16 7V9.20703C15.5232 9.07217 15.02 9 14.5 9C13.5998 9 12.7501 9.21628 12 9.59971V6H13V4.5C13 4.292 12.961 4.096 12.883 3.914C12.805 3.732 12.698 3.573 12.563 3.437C12.428 3.301 12.269 3.195 12.086 3.117C11.903 3.039 11.708 3 11.5 3C11.193 3 10.917 3.086 10.672 3.258C10.776 3.44 10.857 3.635 10.914 3.844C10.971 4.053 11 4.271 11 4.5V10.2572C9.7785 11.266 9 12.7921 9 14.5C9 15.8296 9.47182 17.0491 10.2572 18H7C6.58301 18 6.19501 17.922 5.836 17.766C5.47101 17.61 5.15399 17.396 4.883 17.125C4.60699 16.849 4.39099 16.531 4.23499 16.172C4.078 15.807 4 15.417 4 15V7C4 6.44772 4.44772 6 5 6H6ZM10 6V4.5C10 4.292 9.961 4.096 9.883 3.914C9.805 3.732 9.698 3.573 9.563 3.437C9.428 3.301 9.269 3.195 9.086 3.117C8.903 3.039 8.708 3 8.5 3C8.292 3 8.096 3.039 7.914 3.117C7.732 3.195 7.573 3.302 7.437 3.437C7.301 3.572 7.195 3.731 7.117 3.914C7.039 4.097 7 4.292 7 4.5V6H10ZM19 14.5C19 16.9853 16.9853 19 14.5 19C12.0147 19 10 16.9853 10 14.5C10 12.0147 12.0147 10 14.5 10C16.9853 10 19 12.0147 19 14.5ZM16.3536 13.3536C16.5488 13.1583 16.5488 12.8417 16.3536 12.6464C16.1583 12.4512 15.8417 12.4512 15.6464 12.6464L14.5 13.7929L13.3536 12.6464C13.1583 12.4512 12.8417 12.4512 12.6464 12.6464C12.4512 12.8417 12.4512 13.1583 12.6464 13.3536L13.7929 14.5L12.6464 15.6464C12.4512 15.8417 12.4512 16.1583 12.6464 16.3536C12.8417 16.5488 13.1583 16.5488 13.3536 16.3536L14.5 15.2071L15.6464 16.3536C15.8417 16.5488 16.1583 16.5488 16.3536 16.3536C16.5488 16.1583 16.5488 15.8417 16.3536 15.6464L15.2071 14.5L16.3536 13.3536Z" fill="#212121"/>
</svg>

<svg xmlns="http://www.w3.org/2000/svg" width="20" height="20"><path d="M6 6V4.5c0-.344.065-.667.195-.969.13-.307.31-.573.539-.797.224-.229.49-.409.797-.539.302-.13.625-.195.969-.195.281 0 .549.044.805.133.256.089.49.214.703.375A2.442 2.442 0 0 1 11.5 2a2.484 2.484 0 0 1 2.305 1.531c.13.302.195.625.195.969V6h1a1 1 0 0 1 1 1v2.207A5.504 5.504 0 0 0 14.5 9c-.9 0-1.75.216-2.5.6V6h1V4.5c0-.208-.039-.404-.117-.586A1.482 1.482 0 0 0 11.5 3c-.307 0-.583.086-.828.258A2.503 2.503 0 0 1 11 4.5v5.757A5.489 5.489 0 0 0 9 14.5c0 1.33.472 2.55 1.257 3.5H7a3 3 0 0 1-2.117-.875 3.061 3.061 0 0 1-.648-.953A2.932 2.932 0 0 1 4 15V7a1 1 0 0 1 1-1h1Zm4 0V4.5c0-.208-.039-.404-.117-.586A1.482 1.482 0 0 0 8.5 3c-.208 0-.404.039-.586.117A1.482 1.482 0 0 0 7 4.5V6h3Zm9 8.5a4.5 4.5 0 1 1-9 0 4.5 4.5 0 0 1 9 0Zm-2.646-1.146a.5.5 0 0 0-.708-.708L14.5 13.793l-1.146-1.147a.5.5 0 0 0-.708.708l1.147 1.146-1.147 1.146a.5.5 0 0 0 .708.708l1.146-1.147 1.146 1.147a.5.5 0 0 0 .708-.708L15.207 14.5l1.147-1.146Z"/></svg>
